X:106
T: Yun tian ge
N: C1600
O: China,Anhui, Hexian
S: III, 561]
R: Shange, Tiange]
M: 2/4
L: 1/16
K: F
c2c4d2 | f2g6 | f2dfc2c2 | f3gd2c2 | A8 |
f2dAc2AA | f2dcf4 | c2ccd2f2 | c2A2c4 |
A2f2d2A2 | cdcAG4 | D2A2G2D2 | F4F4 |
c4dcdf | c2A2c4 | f4d2A2 | G8 |
c4dcdf | c2A2c4- | c8

@@@ Tune index: 6661
